X:23
T:Duncan's Reel
M:2/4
L:1/16
Z:jason
B: Bob Walters, 1956
K:A
(3(efg) | a2gb a2ea | fedf edcA | BAGA Bcde | faec defg |
a2gb a2ea | fedf edcA | BAGA BdcB | AcBG A2 :|
|: AB | cAEA cAEA | dfed cBAc | BGEG BGEG | Bcdf edcB | 
cAEA cAEA | dfed cBAc | BAGA BdcB | AcBG A2 :|

